X:1
T:Title
%%score { ( 1 3 ) | ( 2 4 ) }
L:1/8
M:4/4
K:G
V:1 treble nm="Grand Piano"
V:3 treble 
V:2 bass 
V:4 bass 
V:1
 z4 z2[Q:1/4=92] G2 | F[Fc][Fc][Fc] [DFc]4 | GBBB B4 | [G^c]ccc cABc | %4
 d2- [Gd-][Ed-] [Fd]2 [DAc]2 | BBBB B2 d2 | [Ed][Ec][Ec][Ec] [Ec]2 [Ge]2 | %7
 [DGd][DGd][DGd][EGc] [DGB]2 .[DFA]2 | [B,DG]6 z2 |] %9
V:2
 z4 z2 [G,B,D]2 | [D,A,D][D,D][D,D][D,D] D,D,E,F, | [G,B,D][G,D][G,DG][G,DG] [G,DG]4 | %3
 [E,E][A,EG][A,EG][A,EG] [A,EG][A,^CG][A,DG][A,EG] | z2 B,G, A,2 D,2 | %5
 [G,DG][G,DG][G,DG][G,DG] [G,DG]2 [G,B,=F]2 | [C,C][C,G,][C,G,][C,G,] [C,G,]2 [C,C]2 | %7
 B,,B,,B,,C, D,2 z C | G,6 z2 |] %9
V:3
 x8 | x8 | x8 | x8 | [DF]2 z2 z4 | x8 | x8 | x8 | x8 |] %9
V:4
 x8 | x8 | x8 | x8 | D,6 z2 | x8 | x8 | z4 z2 D,2 | x8 |] %9

